assets/svg/rj45.svg

<svg width="50" height="50" viewBox="0 0 50 50" fill="none" xmlns="http://www.w3.org/2000/svg">
<path d="M31.7657 0.000103951H18.2343C17.9325 0.000186789 17.6431 0.118301 17.4296 0.328479C17.2162 0.538658 17.0963 0.823698 17.0962 1.12094V9.57821H32.9037V1.12094C32.9037 0.823698 32.7837 0.538658 32.5703 0.328479C32.3569 0.118301 32.0675 0.000186789 31.7657 0.000103951Z" fill="#CCD3DF"/>
<path d="M21.4072 0.000103951H18.2343C17.9325 0.000186789 17.6431 0.118301 17.4296 0.328479C17.2162 0.538658 17.0963 0.823698 17.0962 1.12094V9.57821H20.2692V1.12094C20.2692 0.823698 20.3892 0.538658 20.6026 0.328479C20.816 0.118301 21.1054 0.000186789 21.4072 0.000103951Z" fill="#A0A6AF"/>
<path d="M28.1003 34.3037H21.765C21.3903 34.3458 21.0461 34.5275 20.8032 34.8116C20.5602 35.0957 20.4368 35.4606 20.4583 35.8314C20.4798 36.2022 20.6446 36.5509 20.9188 36.8059C21.1931 37.0609 21.556 37.2028 21.9332 37.2026H27.9332C28.3102 37.2026 28.6729 37.0604 28.947 36.8054C29.221 36.5503 29.3856 36.2016 29.407 35.8309C29.4283 35.4601 29.3049 35.0954 29.0619 34.8114C28.8189 34.5274 28.4749 34.3458 28.1003 34.3037Z" fill="#B0B5CA"/>
<path d="M22.7419 40.0438V50H27.0465L27.1513 40.0438H22.7419Z" fill="#B0B5CA"/>
<path d="M29.5754 0.000103951H26.6383V3.17926H29.5754V0.000103951Z" fill="#F3CE7D"/>
<path d="M26.6383 0.000103951H23.3617V3.17926H26.6383V0.000103951Z" fill="#DDB973"/>
<path d="M23.3621 0H20.4251V3.17916H23.3621V0Z" fill="#F3CE7D"/>
<path d="M34.5801 9.57821H15.4199C15.3085 9.57829 15.2018 9.62189 15.1231 9.69942C15.0443 9.77696 15.0001 9.8821 15 9.99175V13.6553H35V9.99175C34.9999 9.8821 34.9557 9.77696 34.8769 9.69942C34.7982 9.62189 34.6915 9.57829 34.5801 9.57821Z" fill="#8AAFC4"/>
<path d="M35 13.6553H15V27.4209H35V13.6553Z" fill="#B3D1E7"/>
<path d="M23.0931 9.57821V15.9115C23.0931 16.1582 23.1424 16.4024 23.2382 16.6303C23.3341 16.8581 23.4745 17.0652 23.6516 17.2396C23.8287 17.414 24.0389 17.5523 24.2702 17.6467C24.5016 17.7411 24.7496 17.7897 25 17.7897C25.2504 17.7897 25.4984 17.7411 25.7297 17.6467C25.9611 17.5523 26.1713 17.414 26.3484 17.2396C26.5255 17.0652 26.6659 16.8581 26.7618 16.6303C26.8576 16.4024 26.9069 16.1582 26.9069 15.9115V9.57821H23.0931Z" fill="#978CAC"/>
<path d="M27.9332 37.2026H21.9328C21.5413 37.2026 21.1657 37.3558 20.8888 37.6285C20.6119 37.9013 20.4564 38.2711 20.4564 38.6568C20.4564 39.0425 20.6119 39.4123 20.8888 39.685C21.1657 39.9577 21.5413 40.111 21.9328 40.111H27.9328C28.3244 40.111 28.7 39.9577 28.9769 39.685C29.2538 39.4123 29.4093 39.0425 29.4093 38.6568C29.4093 38.2711 29.2538 37.9013 28.9769 37.6285C28.7 37.3558 28.3244 37.2026 27.9328 37.2026H27.9332Z" fill="#9A9FAF"/>
<path d="M15 27.4209L19.7911 34.1521C19.8296 34.2065 19.8809 34.2509 19.9405 34.2815C20.0002 34.3121 20.0665 34.3282 20.1338 34.3282H29.8662C29.9335 34.3282 29.9998 34.3121 30.0595 34.2815C30.1191 34.2509 30.1704 34.2065 30.2089 34.1521L35 27.4209H15Z" fill="#8AAFC4"/>
<path d="M18.5928 9.57821H15.4199C15.3085 9.57829 15.2018 9.62189 15.1231 9.69942C15.0443 9.77696 15.0001 9.8821 15 9.99175V13.6553H18.1729V9.99175C18.173 9.8821 18.2173 9.77696 18.296 9.69942C18.3747 9.62189 18.4815 9.57829 18.5928 9.57821Z" fill="#64818E"/>
<path d="M18.1729 13.6553H15V27.4209H18.1729V13.6553Z" fill="#90AABA"/>
<path d="M22.964 34.1521L18.1729 27.4209H15L19.7911 34.1521C19.8296 34.2065 19.8809 34.2509 19.9405 34.2815C20.0002 34.3121 20.0665 34.3282 20.1338 34.3282H23.3067C23.2394 34.3282 23.1731 34.3121 23.1135 34.2815C23.0538 34.2509 23.0025 34.2065 22.964 34.1521Z" fill="#64818E"/>
<path d="M17.3313 25.2959C17.163 25.2959 17.0015 25.23 16.8825 25.1128C16.7635 24.9956 16.6967 24.8366 16.6967 24.6709V18.8042C16.6967 18.6385 16.7635 18.4795 16.8825 18.3623C17.0015 18.2451 17.163 18.1792 17.3313 18.1792C17.4996 18.1792 17.661 18.2451 17.78 18.3623C17.899 18.4795 17.9658 18.6385 17.9658 18.8042V24.6709C17.9658 24.8366 17.899 24.9956 17.78 25.1128C17.661 25.23 17.4996 25.2959 17.3313 25.2959Z" fill="#F4F8FC"/>
<path d="M17.3313 17.2065C17.163 17.2065 17.0015 17.1407 16.8825 17.0235C16.7635 16.9063 16.6967 16.7473 16.6967 16.5815V15.9286C16.6967 15.7629 16.7635 15.6039 16.8825 15.4867C17.0015 15.3695 17.163 15.3036 17.3313 15.3036C17.4996 15.3036 17.661 15.3695 17.78 15.4867C17.899 15.6039 17.9658 15.7629 17.9658 15.9286V16.5815C17.9658 16.7473 17.899 16.9063 17.78 17.0235C17.661 17.1407 17.4996 17.2065 17.3313 17.2065Z" fill="#F4F8FC"/>
</svg>

<svg xmlns="http://www.w3.org/2000/svg" width="50" height="50" fill="none" viewBox="0 0 50 50"><path fill="#ccd3df" d="M31.766 0H18.234c-.302 0-.59.118-.804.328s-.334.496-.334.793v8.457h15.808V1.121c0-.297-.12-.582-.334-.793A1.15 1.15 0 0 0 31.766 0"/><path fill="#a0a6af" d="M21.407 0h-3.173c-.302 0-.59.118-.804.328s-.334.496-.334.793v8.457h3.173V1.121c0-.297.12-.582.334-.793.213-.21.502-.328.804-.328"/><path fill="#b0b5ca" d="M28.1 34.304h-6.335a1.48 1.48 0 0 0-.962.508 1.44 1.44 0 0 0 .116 1.994c.274.255.637.397 1.014.397h6c.377 0 .74-.143 1.014-.398s.439-.603.46-.974a1.44 1.44 0 0 0-.345-1.02 1.48 1.48 0 0 0-.962-.507M22.742 40.044V50h4.305l.104-9.956z"/><path fill="#f3ce7d" d="M29.575 0h-2.937v3.18h2.937z"/><path fill="#ddb973" d="M26.638 0h-3.276v3.18h3.276z"/><path fill="#f3ce7d" d="M23.362 0h-2.937v3.18h2.937z"/><path fill="#8aafc4" d="M34.58 9.578H15.42a.42.42 0 0 0-.297.121.4.4 0 0 0-.123.293v3.663h20V9.992a.4.4 0 0 0-.123-.293.42.42 0 0 0-.297-.12"/><path fill="#b3d1e7" d="M35 13.655H15v13.766h20z"/><path fill="#978cac" d="M23.093 9.578v6.334a1.85 1.85 0 0 0 .559 1.328 1.9 1.9 0 0 0 1.348.55 1.93 1.93 0 0 0 1.348-.55 1.88 1.88 0 0 0 .559-1.328V9.578z"/><path fill="#9a9faf" d="M27.933 37.203h-6c-.392 0-.767.153-1.044.425a1.443 1.443 0 0 0 0 2.057c.277.273.652.426 1.044.426h6c.391 0 .767-.153 1.044-.426a1.443 1.443 0 0 0 0-2.056 1.5 1.5 0 0 0-1.044-.426"/><path fill="#8aafc4" d="m15 27.42 4.791 6.732a.42.42 0 0 0 .343.176h9.732a.42.42 0 0 0 .343-.176L35 27.421z"/><path fill="#64818e" d="M18.593 9.578H15.42a.42.42 0 0 0-.297.121.4.4 0 0 0-.123.293v3.663h3.173V9.992a.4.4 0 0 1 .123-.293.42.42 0 0 1 .297-.12"/><path fill="#90aaba" d="M18.173 13.655H15v13.766h3.173z"/><path fill="#64818e" d="m22.964 34.152-4.791-6.731H15l4.791 6.731a.42.42 0 0 0 .343.176h3.173a.42.42 0 0 1-.343-.176"/><path fill="#f4f8fc" d="M17.331 25.296a.64.64 0 0 1-.448-.183.62.62 0 0 1-.186-.442v-5.867a.62.62 0 0 1 .186-.442.64.64 0 0 1 .897 0 .62.62 0 0 1 .186.442v5.867a.62.62 0 0 1-.186.442.64.64 0 0 1-.449.183M17.331 17.207a.64.64 0 0 1-.448-.184.62.62 0 0 1-.186-.442v-.652a.62.62 0 0 1 .186-.442.64.64 0 0 1 .897 0 .62.62 0 0 1 .186.442v.652a.62.62 0 0 1-.186.442.64.64 0 0 1-.449.183"/></svg>
